X:245
T: Susanna, willt du mit?
N: A0290B
O: Europa, Mitteleuropa, Deutschland
N: Praetorius Mus. Sion. VII 1609 No. 75
R: Romanze, Ballade, Lied
M: 4/4
L: 1/4
K: G
G | _BABc | d2z
G | _BABc | d2z
d | dddd | c_BA
G | dddd | c_BA
B | AGGF | G3
d | _BcAA | G3

@@@ Tune index: 245
